material/.icons/material/briefcase-plus-outline.svg

<svg xmlns="http://www.w3.org/2000/svg" viewBox="0 0 24 24"><path d="M10 2h4a2 2 0 012 2v2h4a2 2 0 012 2v5.53a5.72 5.72 0 00-2-1.19V8H4v11h8.08c.12.72.37 1.39.72 2H4a2 2 0 01-2-2V8a2 2 0 012-2h4V4a2 2 0 012-2m4 4V4h-4v2h4m0 11h3v-3h2v3h3v2h-3v3h-2v-3h-3v-2z"/></svg>

<?xml version="1.0" encoding="UTF-8"?><!DOCTYPE svg PUBLIC "-//W3C//DTD SVG 1.1//EN" "http://www.w3.org/Graphics/SVG/1.1/DTD/svg11.dtd"><svg xmlns="http://www.w3.org/2000/svg" xmlns:xlink="http://www.w3.org/1999/xlink" version="1.1" id="mdi-briefcase-plus-outline" width="24" height="24" viewBox="0 0 24 24"><path d="M10,2H14A2,2 0 0,1 16,4V6H20A2,2 0 0,1 22,8V13.53C21.42,13 20.75,12.6 20,12.34V8H4V19H12.08C12.2,19.72 12.45,20.39 12.8,21H4A2,2 0 0,1 2,19V8A2,2 0 0,1 4,6H8V4A2,2 0 0,1 10,2M14,6V4H10V6H14M14,17H17V14H19V17H22V19H19V22H17V19H14V17Z" /></svg>
